X:457
T:Turkey In The Straw
C:Traditional
N:Transcribed by Rod B.
R:bluegrass
L:1/8
Q:1/4=216
M:4/4
K:G
z6 BA |: "G"GF GA GD B,C | DE DB, DE GA | B2 de dB GA | "D"BG AB A2 BA | "G"GF GA GD B,C | 
DE DB, D2 GA | Bd de dB GA |1 "D"BG FA "G"G2 BA :|2 "D"BG FA "G"G4 |: "G"^AB de d2 d2 | 
^AB de "Fingering:"d4 | "C""3"^d"3"e "1"g"2"a "1"g2 "1"g2 | "3"^d"3"e "1"g"2"a "1"g2 "1"g"2"a | 
"3""G"b"4"c' "3"b"1"g "2"a"3"b "2"a"1"f | ga ge d2 GA | Bd de dB GA |1 "D"BG FA "G"G4 :|2 "D"vB/uA/uG FA "G"G4 | 


